digital/Imbassy-X-Files/65ef0811cc67439994568a45/65ef0811cc6743999456900f_Entrepreneur_(magazine)_logo_2012 1.svg

<svg fill="none" height="36" viewBox="0 0 183 36" width="183" xmlns="http://www.w3.org/2000/svg" xmlns:xlink="http://www.w3.org/1999/xlink"><clipPath id="a"><path d="m0 0h183v36h-183z"/></clipPath><g clip-path="url(#a)" fill="#fff"><path d="m.26823 24.437 2.31348-.3698v-21.41174l-2.58171-.33613.134115-2.31933h16.160885l-.4024 6.48739-3.2187-.10084-.2012-4.06722h-4.99579v9.64707h2.17937l.50292-2.2185 2.2464.06723v6.65547h-2.2464l-.53644-2.2857h-2.17937v10.2185h5.02931l.4694-4.437 3.3864.1008.2682 6.7563h-16.429056z"/><path d="m18.1055 26.8581.1006-1.9832 1.8105-.3698v-13.5126l-2.1123-.2017v-2.01677l5.2975-.77311.4024 1.14286v.77311c1.2741-1.34454 2.8164-2.15127 4.7946-2.15127 2.8835 0 5.0293 1.7479 5.0293 5.21008v11.4958l1.9112.3698-.1006 1.9832h-6.3034v-12.8404c0-1.8487-.6706-2.8907-2.3471-2.8907-.5699 0-.9723.1008-1.4082.2689-.2682.2353-.5364.5714-.7711.8739v12.3025l1.9111.3698-.1341 1.9832h-8.0804z"/><path d="m119.396 26.8581.067-1.9832 1.81-.3698v-13.5126l-2.112-.2017v-2.01677l5.298-.77311.402 1.14286v.77311c1.274-1.34454 2.816-2.15127 4.795-2.15127 2.883 0 5.029 1.7479 5.029 5.21008v11.4958l1.911.3698-.1 1.9832h-6.27v-12.8404c0-1.8487-.671-2.8907-2.347-2.8907-.57 0-.973.1008-1.409.2689-.268.2353-.536.5714-.771.8739v12.3025l1.911.3698-.134 1.9832h-8.08z"/><path d="m45.3308 26.4856c-.7377.3025-2.0453.6386-3.7553.6386-2.2464 0-4.3252-1.0084-4.3252-4.3025v-11.8319l-2.1458-.3362.1006-2.35292 2.414-.10084 1.0394-3.59664 3.0847-.13445v3.86555h3.3193l-.2347 2.3529-3.0511.3362v11.8319c0 .9748.5365 1.6135 1.5423 1.6135h1.8106z"/><path d="m170.829 26.8556.067-1.9496 1.71-.4033v-13.5126l-2.011-.2017v-2.01683l5.498-.77311.369 1.31092v.43698c1.442-1.07563 3.387-1.78152 5.734-1.78152l.804.70589-.57 5.10927-3.017-.1009-.302-2.7227c-.704.1009-1.375.3026-1.945.7059v12.874l1.912.4033-.135 1.9496h-8.114z"/><path d="m91.8691 26.8556.1006-1.9496 1.71-.4033v-13.5126l-2.0117-.2017v-2.01683l5.4987-.77311.3688 1.31092v.43698c1.4417-1.07563 3.3865-1.78152 5.7335-1.78152l.805.70589-.637 5.10927-3.018-.1009-.302-2.7227c-.7039.1009-1.3745.3026-1.9445.7059v12.874l1.9115.4033-.1344 1.9496h-8.0805z"/><path d="m46.6719 26.8556.1006-1.9496 1.7099-.4033v-13.5126l-2.0117-.2017v-2.01683l5.4987-.77311.3688 1.31092v.43698c1.4418-1.07563 3.3864-1.78152 5.6999-1.78152l.8047.70589-.57 5.10927-3.0176-.1009-.3017-2.7227c-.7041.1009-1.3747.3026-1.9447.7059v12.874l1.9112.4033-.1342 1.9496h-8.1139z"/><path d="m64.0401 18.6212c0 3.2269 1.4082 5.7143 4.1911 5.7143 1.4417 0 2.5817-.3025 3.9228-.9412l.7712 1.7815c-1.3747 1.1093-3.3864 1.9496-5.9011 1.9496-4.8952 0-7.7116-4.2353-7.7116-9.6806 0-4.6387 2.0453-9.71433 7.6446-9.71433 4.8952 0 6.7392 4.53783 6.7392 9.57983l-.4694 1.2101zm-.0671-2.1512 5.6328-.2689c-.1006-2.2521-.57-5.8152-2.7829-5.8152-.5364 0-.9052.1009-1.5758.437-.9053 1.5462-1.2741 4.3361-1.2741 5.6471z"/><path d="m141.961 18.6212c0 3.2269 1.408 5.7143 4.191 5.7143 1.442 0 2.582-.3025 3.923-.9412l.771 1.7815c-1.375 1.1093-3.386 1.9496-5.901 1.9496-4.895 0-7.712-4.2353-7.712-9.6806 0-4.6387 2.046-9.71433 7.645-9.71433 4.895 0 6.739 4.53783 6.739 9.57983l-.469 1.2101zm-.067-2.1512 5.633-.2689c-.101-2.2521-.57-5.8152-2.783-5.8152-.537 0-.905.1009-1.576.437-.905 1.5462-1.274 4.3361-1.274 5.6471z"/><path d="m109.236 18.6212c0 3.2269 1.409 5.7143 4.191 5.7143 1.442 0 2.582-.3025 3.923-.9412l.771 1.7815c-1.374 1.1093-3.386 1.9496-5.901 1.9496-4.895 0-7.711-4.2353-7.711-9.6806 0-4.6387 2.045-9.71433 7.644-9.71433 4.896 0 6.74 4.53783 6.74 9.57983l-.47 1.2101zm-.067-2.1512 5.633-.2689c-.1-2.2521-.57-5.8152-2.783-5.8152-.536 0-.905.1009-1.576.437-.905 1.5462-1.307 4.3361-1.274 5.6471z"/><path d="m164.291 26.8572-.469-1.6134c-1.241 1.1765-2.448 1.8823-4.326 1.8823-2.883 0-5.465-1.4453-5.465-5.4453v-11.1597l-2.112-.2017v-1.78149l6.102-.70588.47 1.61345v11.69752c0 2.0504.838 3.126 2.481 3.126.469 0 1.073-.0672 1.609-.2689.302-.3025.604-.6723.838-1.042v-12.437l-2.179-.2017v-1.78149l6.169-.70588.47 1.61345v15.05882l1.911.3697-.235 1.9832z"/><path d="m82.8493 24.4379c-.9723 0-1.7435-.1681-2.347-.5042v-11.8656c.2682-.4033.57-.7731.8717-1.1092.57-.2017 1.073-.2689 1.6765-.2689 2.5146 0 2.9505 2.5546 2.9505 7.126 0 4.4034-.6706 5.6135-.8382 6.1177-.7041.3361-1.4417.5042-2.3135.5042zm7.5105-7.4286c0-5.6807-1.6765-9.24368-5.8676-9.24368-2.7829 0-4.0905 1.61345-4.6269 2.28568v-.63862l-.4694-1.61344-5.4652.77311v1.94955l2.1123.2689v22.9244l-1.8106.3698-.1006 1.9159h8.0805l.1341-1.9159-1.9112-.3698v-7.2605c.7712.437 1.8441.7059 3.0176.7059 6.8399 0 6.907-6.958 6.907-10.1513z"/></g></svg>

<svg width="183" height="36" viewBox="0 0 183 36" fill="none" xmlns="http://www.w3.org/2000/svg">
<g clip-path="url(#clip0_1094_7869)">
<path d="M0.26823 24.437L2.58171 24.0672V2.65546L0 2.31933L0.134115 0H16.295L15.8926 6.48739L12.6739 6.38655L12.4727 2.31933H7.47691V11.9664H9.65628L10.1592 9.7479L12.4056 9.81513V16.4706H10.1592L9.62276 14.1849H7.44339V24.4034H12.4727L12.9421 19.9664L16.3285 20.0672L16.5967 26.8235H0.167644L0.26823 24.437Z" fill="white"/>
<path d="M18.1055 26.8581L18.2061 24.8749L20.0166 24.5051V10.9925L17.9043 10.7908V8.77403L23.2018 8.00092L23.6042 9.14378V9.91689C24.8783 8.57235 26.4206 7.76562 28.3988 7.76562C31.2823 7.76562 33.4281 9.51352 33.4281 12.9757V24.4715L35.3393 24.8413L35.2387 26.8245H28.9353V13.9841C28.9353 12.1354 28.2647 11.0934 26.5882 11.0934C26.0183 11.0934 25.6159 11.1942 25.18 11.3623C24.9118 11.5976 24.6436 11.9337 24.4089 12.2362V24.5387L26.32 24.9085L26.1859 26.8917H18.1055V26.8581Z" fill="white"/>
<path d="M119.396 26.8581L119.463 24.8749L121.273 24.5051V10.9925L119.161 10.7908V8.77403L124.459 8.00092L124.861 9.14378V9.91689C126.135 8.57235 127.677 7.76562 129.656 7.76562C132.539 7.76562 134.685 9.51352 134.685 12.9757V24.4715L136.596 24.8413L136.496 26.8245H130.226V13.9841C130.226 12.1354 129.555 11.0934 127.879 11.0934C127.309 11.0934 126.906 11.1942 126.47 11.3623C126.202 11.5976 125.934 11.9337 125.699 12.2362V24.5387L127.61 24.9085L127.476 26.8917H119.396V26.8581Z" fill="white"/>
<path d="M45.3308 26.4856C44.5931 26.7881 43.2855 27.1242 41.5755 27.1242C39.3291 27.1242 37.2503 26.1158 37.2503 22.8217V10.9898L35.1045 10.6536L35.2051 8.30068L37.6191 8.19984L38.6585 4.6032L41.7432 4.46875V8.3343H45.0625L44.8278 10.6872L41.7767 11.0234V22.8553C41.7767 23.8301 42.3132 24.4688 43.319 24.4688H45.1296L45.3308 26.4856Z" fill="white"/>
<path d="M170.829 26.8556L170.896 24.906L172.606 24.5027V10.9901L170.595 10.7884V8.77157L176.093 7.99846L176.462 9.30938V9.74636C177.904 8.67073 179.849 7.96484 182.196 7.96484L183 8.67073L182.43 13.78L179.413 13.6791L179.111 10.9564C178.407 11.0573 177.736 11.259 177.166 11.6623V24.5363L179.078 24.9396L178.943 26.8892H170.829V26.8556Z" fill="white"/>
<path d="M91.8691 26.8556L91.9697 24.906L93.6797 24.5027V10.9901L91.668 10.7884V8.77157L97.1667 7.99846L97.5355 9.30938V9.74636C98.9772 8.67073 100.922 7.96484 103.269 7.96484L104.074 8.67073L103.437 13.78L100.419 13.6791L100.117 10.9564C99.4131 11.0573 98.7425 11.259 98.1725 11.6623V24.5363L100.084 24.9396L99.9496 26.8892H91.8691V26.8556Z" fill="white"/>
<path d="M46.6719 26.8556L46.7725 24.906L48.4824 24.5027V10.9901L46.4707 10.7884V8.77157L51.9694 7.99846L52.3382 9.30938V9.74636C53.78 8.67073 55.7246 7.96484 58.0381 7.96484L58.8428 8.67073L58.2728 13.78L55.2552 13.6791L54.9535 10.9564C54.2494 11.0573 53.5788 11.259 53.0088 11.6623V24.5363L54.92 24.9396L54.7858 26.8892H46.6719V26.8556Z" fill="white"/>
<path d="M64.0401 18.6212C64.0401 21.8481 65.4483 24.3355 68.2312 24.3355C69.6729 24.3355 70.8129 24.033 72.154 23.3943L72.9252 25.1758C71.5505 26.2851 69.5388 27.1254 67.0241 27.1254C62.1289 27.1254 59.3125 22.8901 59.3125 17.4448C59.3125 12.8061 61.3578 7.73047 66.9571 7.73047C71.8523 7.73047 73.6963 12.2683 73.6963 17.3103L73.2269 18.5204L64.0401 18.6212ZM63.973 16.47L69.6058 16.2011C69.5052 13.949 69.0358 10.3859 66.8229 10.3859C66.2865 10.3859 65.9177 10.4868 65.2471 10.8229C64.3418 12.3691 63.973 15.159 63.973 16.47Z" fill="white"/>
<path d="M141.961 18.6212C141.961 21.8481 143.369 24.3355 146.152 24.3355C147.594 24.3355 148.734 24.033 150.075 23.3943L150.846 25.1758C149.471 26.2851 147.46 27.1254 144.945 27.1254C140.05 27.1254 137.233 22.8901 137.233 17.4448C137.233 12.8061 139.279 7.73047 144.878 7.73047C149.773 7.73047 151.617 12.2683 151.617 17.3103L151.148 18.5204L141.961 18.6212ZM141.894 16.47L147.527 16.2011C147.426 13.949 146.957 10.3859 144.744 10.3859C144.207 10.3859 143.839 10.4868 143.168 10.8229C142.263 12.3691 141.894 15.159 141.894 16.47Z" fill="white"/>
<path d="M109.236 18.6212C109.236 21.8481 110.645 24.3355 113.427 24.3355C114.869 24.3355 116.009 24.033 117.35 23.3943L118.121 25.1758C116.747 26.2851 114.735 27.1254 112.22 27.1254C107.325 27.1254 104.509 22.8901 104.509 17.4448C104.509 12.8061 106.554 7.73047 112.153 7.73047C117.049 7.73047 118.893 12.2683 118.893 17.3103L118.423 18.5204L109.236 18.6212ZM109.169 16.47L114.802 16.2011C114.702 13.949 114.232 10.3859 112.019 10.3859C111.483 10.3859 111.114 10.4868 110.443 10.8229C109.538 12.3691 109.136 15.159 109.169 16.47Z" fill="white"/>
<path d="M164.291 26.8572L163.822 25.2438C162.581 26.4203 161.374 27.1261 159.496 27.1261C156.613 27.1261 154.031 25.6808 154.031 21.6808V10.5211L151.919 10.3194V8.53791L158.021 7.83203L158.491 9.44548V21.143C158.491 23.1934 159.329 24.269 160.972 24.269C161.441 24.269 162.045 24.2018 162.581 24.0001C162.883 23.6976 163.185 23.3278 163.419 22.9581V10.5211L161.24 10.3194V8.53791L167.409 7.83203L167.879 9.44548V24.5043L169.79 24.874L169.555 26.8572H164.291Z" fill="white"/>
<path d="M82.8493 24.4379C81.877 24.4379 81.1058 24.2698 80.5023 23.9337V12.0681C80.7705 11.6648 81.0723 11.295 81.374 10.9589C81.944 10.7572 82.447 10.69 83.0505 10.69C85.5651 10.69 86.001 13.2446 86.001 17.816C86.001 22.2194 85.3304 23.4295 85.1628 23.9337C84.4587 24.2698 83.7211 24.4379 82.8493 24.4379ZM90.3598 17.0093C90.3598 11.3286 88.6833 7.76562 84.4922 7.76562C81.7093 7.76562 80.4017 9.37907 79.8653 10.0513V9.41268L79.3959 7.79924L73.9307 8.57235V10.5219L76.043 10.7908V33.7152L74.2324 34.085L74.1318 36.0009H82.2123L82.3464 34.085L80.4352 33.7152V26.4547C81.2064 26.8917 82.2793 27.1606 83.4528 27.1606C90.2927 27.1606 90.3598 20.2026 90.3598 17.0093Z" fill="white"/>
</g>
<defs>
<clipPath id="clip0_1094_7869">
<rect width="183" height="36" fill="white"/>
</clipPath>
</defs>
</svg>
